X:3
T:Luring #3
R:schottis
H:efter Luringen och Spel-Bengten
A:Sm{\aa}land
Z:hn-schottis-3
M:C|
K:Ddor
^g>^ga>a b2a2|^f>^f^g>^g a2^g2|e>e^f>^f =g2^f2|d2d2 c4:|
|:D>EF>G F>ED>E|F>EF>G A2A2|A>Bc>d c>BA>B|c2c2 B4|
D>EF>G F>ED>E|F>EF>G A2A2|A>Bc>d c>BA>B|c2B2 A4:|
<end>
<start>
